src/img/HomePage/ChefTakeshi/desktopWhitePepper.svg

<?xml version="1.0" encoding="UTF-8"?> <svg xmlns="http://www.w3.org/2000/svg" width="322" height="124" viewBox="0 0 322 124" fill="none"> <path fill-rule="evenodd" clip-rule="evenodd" d="M0.161601 9.5589C-0.227104 12.5136 0.531852 16.2967 2.9346 23.396C4.75397 28.7707 7.22806 36.3985 8.43337 40.3468C10.8703 48.3297 16.0241 57.6866 23.2707 67.2846C31.5103 78.1954 36.1691 82.6356 54.7365 97.2762C57.0857 99.128 61.5871 101.686 65.1384 103.185C68.5806 104.639 73.9132 107.241 76.9887 108.966C91.671 117.206 108.201 122.033 122.86 122.363C125.962 122.433 128.622 122.573 128.772 122.673C129.424 123.111 166.095 124.98 175.971 121.578L189.432 119.505C202.329 116.288 204.966 115.433 226.593 100.843C241.13 91.0376 244.052 88.2171 244.57 83.4975C244.843 81.0141 249.015 72.2885 251.874 68.2194C252.909 66.7468 260.578 62.0974 273.939 54.8436C285.202 48.7275 294.877 43.5716 295.439 43.3852C298.178 42.4766 308.235 35.1734 312.506 30.9919C319.13 24.5047 321.969 18.1441 320.824 12.3529C320.251 9.45191 316.744 7.53884 314.069 8.66753C311.943 9.56397 311.716 10.0153 310.501 15.7522C308.581 24.8264 305.766 27.7613 291.055 36.0259C265.472 50.4001 246.136 57.6898 236.628 56.5462C233.43 56.1607 232.44 55.6745 230.668 53.6168C228.889 51.5506 227.865 51.0533 224.38 50.5596C218.537 49.732 212.904 51.5662 201.508 58.0068C188.013 65.634 156.369 76.524 156.369 76.524C141.917 79.8992 129.299 80.0201 120.834 80.472C110.417 81.0299 98.9905 78.7987 75.8331 71.6863C67.8283 69.228 66.3638 68.4678 51.0933 58.8519C32.9828 47.4474 28.7889 43.9205 23.8349 35.9252C20.2355 30.1155 15.2772 18.1958 14.6267 13.7877C13.5166 6.26969 8.96873 -0.487858 5.4791 0.196846C3.27754 0.628814 0.751033 5.07679 0.161601 9.5589ZM5.22835 20.7356C3.49549 15.8606 2.86825 12.3432 3.23365 9.56239C4.5594 -0.521632 8.54847 1.40662 11.4841 13.5483C13.436 21.6239 17.029 30.6581 20.6003 36.4684C25.2611 44.0518 29.6674 48.1311 42.3435 56.5987C61.1015 69.1273 66.005 71.6885 78.4369 75.4528C102.537 82.7497 112.996 84.3853 126.025 82.8971C126.025 82.8971 136.429 82.3256 143.095 81.9594C153.888 81.003 173.981 74.0528 182.073 70.2861C186.431 68.2585 195.374 64.7592 201.093 61.5514C215.996 53.1944 222.759 51.4948 227.759 54.849C229.034 55.7045 229.446 56.6325 229.051 57.7653C228.733 58.6794 228.659 59.5863 228.885 59.7824C230.93 61.5423 231.708 62.8471 232.29 65.4952C232.663 67.1911 234.363 70.2521 236.068 72.2977C237.772 74.3429 239.429 77.0018 239.749 78.2074C240.069 79.4122 240.744 80.95 241.248 81.6242C241.757 82.306 241.637 84.081 240.976 85.6207C239.999 87.8994 237.526 89.9345 227.049 97.0808C207.919 110.13 205.846 111.043 192.741 114.712C154.748 123.565 129.593 120.143 129.593 120.143C126.563 120.256 110.016 119.584 99.6457 115.917C94.9188 114.551 73.0808 104.008 69.3253 102.035C65.5698 100.061 73.8471 104.128 69.3253 102.035C59.3218 97.4025 56.6139 95.5806 44.9353 85.6201C26.7194 70.084 15.421 54.0276 10.2297 36.2973C8.86933 31.6517 6.61896 24.6495 5.22835 20.7356ZM239.036 71.3889C237.417 69.4676 235.516 65.9465 234.811 63.5646C234.107 61.1833 233.559 59.1808 233.592 59.116C233.625 59.0512 235.609 59.1185 238 59.2654C246.594 59.7942 260.82 54.8358 282.383 43.7938C295.96 36.8418 304.211 31.4867 308.629 26.7596C311.183 24.028 311.837 22.676 312.831 18.0846C314.276 11.3991 315.143 9.98164 317.018 11.2393C319.507 12.9095 318.614 18.0034 314.847 23.6159C309.698 31.285 304.059 35.6958 289.622 43.3447C284.963 45.813 274.491 51.4624 266.349 55.899C250.392 64.596 249.587 65.3106 245.144 74.7103C243.18 78.8656 243.105 78.9301 242.551 76.936C242.236 75.8061 240.655 73.3103 239.036 71.3889Z" fill="#201B19"></path> <path d="M135.446 103.589L129.593 120.143C129.593 120.143 154.748 123.565 192.741 114.712C205.846 111.043 207.919 110.13 227.049 97.0808C237.526 89.9345 239.999 87.8994 240.976 85.6207C241.637 84.081 241.757 82.306 241.248 81.6242C240.744 80.95 240.069 79.4122 239.749 78.2074C239.429 77.0018 237.772 74.3429 236.068 72.2977C234.363 70.2521 232.663 67.1911 232.29 65.4952C231.708 62.8471 230.93 61.5423 228.885 59.7824C228.659 59.5863 228.733 58.6794 229.051 57.7653C229.446 56.6325 229.034 55.7045 227.759 54.849C222.759 51.4948 215.996 53.1944 201.093 61.5514C195.374 64.7592 186.431 68.2585 182.073 70.2861C173.981 74.0528 153.888 81.003 143.095 81.9594L138.302 82.7665L135.446 103.589Z" fill="#FAF5E5"></path> <path d="M3.23365 9.56239C2.86825 12.3432 3.49549 15.8606 5.22835 20.7356C6.61896 24.6495 8.86933 31.6517 10.2297 36.2973C15.421 54.0276 26.7194 70.084 44.9353 85.6201C56.6139 95.5806 59.3218 97.4025 69.3253 102.035C73.0808 104.008 94.9188 114.551 99.6457 115.917C110.016 119.584 126.563 120.256 129.593 120.143L135.446 103.589L138.302 82.7665L143.095 81.9594L126.025 82.8971C112.996 84.3853 102.537 82.7497 78.4369 75.4528C66.005 71.6885 61.1015 69.1273 42.3435 56.5987C29.6674 48.1311 25.2611 44.0518 20.6003 36.4684C17.029 30.6581 13.436 21.6239 11.4841 13.5483C8.54847 1.40662 4.5594 -0.521632 3.23365 9.56239Z" fill="#FAF5E5"></path> <path d="M234.811 63.5646C235.516 65.9465 237.417 69.4676 239.036 71.3889C240.655 73.3103 242.236 75.8061 242.551 76.936C243.105 78.9301 243.18 78.8656 245.144 74.7103C249.587 65.3106 250.392 64.596 266.349 55.899C274.491 51.4624 284.963 45.813 289.622 43.3447C304.059 35.6958 309.698 31.285 314.847 23.6159C318.614 18.0034 319.507 12.9095 317.018 11.2393C315.143 9.98164 314.276 11.3991 312.831 18.0846C311.837 22.676 311.183 24.028 308.629 26.7596C304.211 31.4867 295.96 36.8418 282.383 43.7938C260.82 54.8358 246.594 59.7942 238 59.2654C235.609 59.1185 233.625 59.0512 233.592 59.116C233.559 59.1808 234.107 61.1833 234.811 63.5646Z" fill="#FAF5E5"></path> </svg>

<svg xmlns="http://www.w3.org/2000/svg" width="322" height="124" fill="none"><path fill-rule="evenodd" clip-rule="evenodd" d="M.162 9.559c-.39 2.955.37 6.738 2.773 13.837 1.819 5.375 4.293 13.002 5.498 16.95 2.437 7.984 7.591 17.34 14.838 26.939 8.24 10.91 12.898 15.35 31.465 29.991 2.35 1.852 6.851 4.41 10.402 5.909 3.443 1.454 8.775 4.056 11.85 5.781 14.683 8.24 31.213 13.067 45.872 13.397 3.102.07 5.762.21 5.912.31.652.438 37.323 2.307 47.199-1.095l13.461-2.073c12.897-3.217 15.534-4.072 37.161-18.662 14.537-9.805 17.459-12.626 17.977-17.346.273-2.483 4.445-11.209 7.304-15.278 1.035-1.472 8.704-6.122 22.065-13.375 11.263-6.117 20.938-11.272 21.5-11.459 2.739-.908 12.796-8.212 17.067-12.393 6.624-6.487 9.463-12.848 8.318-18.64-.573-2.9-4.08-4.813-6.755-3.684-2.126.896-2.353 1.347-3.568 7.084-1.92 9.074-4.735 12.01-19.446 20.274-25.583 14.374-44.919 21.664-54.427 20.52-3.198-.385-4.188-.871-5.96-2.93-1.779-2.065-2.803-2.563-6.288-3.056-5.843-.828-11.476 1.006-22.872 7.447-13.495 7.627-45.139 18.517-45.139 18.517-14.452 3.375-27.07 3.496-35.535 3.948-10.417.558-21.844-1.673-45-8.786-8.006-2.458-9.47-3.218-24.74-12.834-18.111-11.405-22.305-14.931-27.26-22.927-3.599-5.81-8.557-17.73-9.207-22.137C13.517 6.27 8.969-.488 5.479.197 3.278.629.751 5.077.162 9.559Zm5.066 11.177c-1.733-4.875-2.36-8.393-1.994-11.174 1.325-10.084 5.314-8.155 8.25 3.986 1.952 8.076 5.545 17.11 9.116 22.92 4.661 7.584 9.067 11.663 21.743 20.13 18.758 12.53 23.662 15.09 36.094 18.855 24.1 7.297 34.559 8.932 47.588 7.444l17.07-.938c10.793-.956 30.886-7.906 38.978-11.673 4.358-2.028 13.301-5.527 19.02-8.735 14.903-8.357 21.666-10.056 26.666-6.702 1.275.856 1.687 1.784 1.292 2.916-.318.914-.392 1.821-.166 2.017 2.045 1.76 2.823 3.065 3.405 5.713.373 1.696 2.073 4.757 3.778 6.803 1.704 2.045 3.361 4.704 3.681 5.91.32 1.204.995 2.742 1.499 3.416.509.682.389 2.457-.272 3.997-.977 2.278-3.45 4.314-13.927 11.46-19.13 13.049-21.203 13.962-34.308 17.631-37.993 8.853-63.148 5.431-63.148 5.431-3.03.113-19.577-.559-29.947-4.226-4.727-1.366-26.565-11.909-30.32-13.882-3.756-1.974 4.521 2.093 0 0-10.004-4.632-12.712-6.454-24.39-16.415C26.718 70.084 15.42 54.028 10.23 36.297 8.87 31.652 6.619 24.65 5.228 20.736Zm233.808 50.653c-1.619-1.921-3.52-5.442-4.225-7.824-.704-2.382-1.252-4.384-1.219-4.449.033-.065 2.017.002 4.408.15 8.594.528 22.82-4.43 44.383-15.472 13.577-6.952 21.828-12.307 26.246-17.034 2.554-2.732 3.208-4.084 4.202-8.675 1.445-6.686 2.312-8.103 4.187-6.846 2.489 1.67 1.596 6.764-2.171 12.377-5.149 7.669-10.788 12.08-25.225 19.729-4.659 2.468-15.131 8.117-23.273 12.554-15.957 8.697-16.762 9.412-21.205 18.811-1.964 4.156-2.039 4.22-2.593 2.226-.315-1.13-1.896-3.626-3.515-5.547Z" fill="#201B19"/><path d="m135.446 103.589-5.853 16.554s25.155 3.422 63.148-5.431c13.105-3.669 15.178-4.582 34.308-17.631 10.477-7.147 12.95-9.182 13.927-11.46.661-1.54.781-3.315.272-3.997-.504-.674-1.179-2.212-1.499-3.417-.32-1.205-1.977-3.864-3.681-5.91-1.705-2.045-3.405-5.106-3.778-6.802-.582-2.648-1.36-3.953-3.405-5.713-.226-.196-.152-1.103.166-2.017.395-1.133-.017-2.06-1.292-2.916-5-3.354-11.763-1.655-26.666 6.702-5.719 3.208-14.662 6.707-19.02 8.735-8.092 3.767-28.185 10.717-38.978 11.673l-4.793.807-2.856 20.823Z" fill="#FAF5E5"/><path d="M3.234 9.562c-.366 2.781.261 6.299 1.994 11.174C6.62 24.649 8.87 31.652 10.23 36.297c5.191 17.73 16.49 33.787 34.705 49.323 11.679 9.96 14.387 11.782 24.39 16.415 3.756 1.973 25.594 12.516 30.32 13.882 10.371 3.667 26.918 4.339 29.948 4.226l5.853-16.554 2.856-20.823 4.793-.807-17.07.938c-13.029 1.488-23.488-.147-47.588-7.444-12.432-3.764-17.335-6.326-36.093-18.854C29.666 48.13 25.26 44.052 20.6 36.469c-3.571-5.81-7.164-14.845-9.116-22.92C8.548 1.406 4.56-.522 3.234 9.561ZM234.811 63.565c.705 2.382 2.606 5.903 4.225 7.824 1.619 1.921 3.2 4.417 3.515 5.547.554 1.994.629 1.93 2.593-2.226 4.443-9.4 5.248-10.114 21.205-18.811 8.142-4.437 18.614-10.086 23.273-12.554 14.437-7.65 20.076-12.06 25.225-19.73 3.767-5.612 4.66-10.705 2.171-12.376-1.875-1.257-2.742.16-4.187 6.846-.994 4.591-1.648 5.943-4.202 8.675-4.418 4.727-12.669 10.082-26.246 17.034-21.563 11.042-35.789 16-44.383 15.471-2.391-.147-4.375-.214-4.408-.149-.033.065.515 2.067 1.219 4.449Z" fill="#FAF5E5"/></svg>
